X:1
T:Title
%%score { ( 1 4 ) | ( 2 3 ) }
L:1/8
M:4/4
K:G
V:1 treble nm="Grand Piano"
V:4 treble 
V:2 bass 
V:3 bass 
V:1
 z4 z2[Q:1/4=100] GA | [DB]B[Ec]B [DB]AGE | [B,D]6 FG | [CA]AAA [CA]G[Ec][DB] | z2 A,2 z2 Bc | %5
 dd^cd [DB]BAG | [CE]6 FG | [CA][CA][CA][DB] [Ec]cBA |[M:3/4] [B,G]6[K:bass] | %9
[M:1/4][K:treble] de |[M:4/4] d4 B2 [^DB][DA] | [EG]4 E2 EE | [B,D][B,D]Ge d2 BG |[M:9/8] .B6 z3 | %14
[M:4/4] d4 B2 [^DB][DA] | [EG]4 E2 EE | [B,D]2 Ge d2 BG |[M:7/8] [EG]2 [FA]2 [B,DG]3 |] %18
V:2
 z4 z2 B,C | z D z D z CB,C | G,,D,G,D, G,,2 A,B, | z CCC z B, [D,F,]2 | [D,,D,]2 F,2 D,2 G,A, | %5
 B,B,_B,=B, z DCB, | C,E,G,E, C,2 A,B, | [D,,D,]2 [D,F,]2 z EDC |[M:3/4] G,,2 D,2 z2 | %9
[M:1/4][K:treble] [G,B,G][G,CG] |[M:4/4] [G,B,G]4[K:bass] [G,D]2 [B,,F,][B,,F,] | %11
 [C,E,]4 [C,G,C]2 [C,G,C][C,G,C] | [G,,G,][G,,G,][K:treble][G,B,D][G,CG] [G,B,G]2 [G,DG][G,B,D] | %13
[M:9/8][K:bass] [G,D]2 B,- B, D,2- D,[D,A,][D,C] | %14
[M:4/4][K:treble] [G,B,G]4 [G,D]2[K:bass] [B,,F,][B,,F,] | [C,E,]4 [C,G,C]2 [C,G,C][C,G,C] | %16
 [G,,G,]2[K:treble] [G,B,D][G,CG] [G,B,G]2 [G,DG][G,B,D] | %17
[M:7/8][K:bass] [E,B,]2 [D,C]2 [G,,G,]3 |] %18
V:3
 x8 | G,,2 G,2 G,,2 z2 | x8 | [D,,D,]2 [D,F,]2 D,2 z2 | x8 | G,4 G,4 | x8 | z4 [D,,D,]2 [D,F,]2 | %8
[M:3/4] x6 |[M:1/4][K:treble] x2 |[M:4/4] x4[K:bass] x4 | x8 | x2[K:treble] x6 | %13
[M:9/8][K:bass] .D,6 z3 |[M:4/4][K:treble] x6[K:bass] x2 | x8 | x2[K:treble] x6 | %17
[M:7/8][K:bass] x7 |] %18
V:4
 x8 | x8 | x8 | x8 | [CA]6 z2 | x8 | x8 | x8 |[M:3/4] z2[K:bass] G,2 G,,2 |[M:1/4][K:treble] x2 | %10
[M:4/4] x8 | x8 | x8 |[M:9/8] z2 G- G [DFA]2- [DFA][Fd][Fe] |[M:4/4] x8 | x8 | x8 |[M:7/8] x7 |] %18

